X: 28715
T: My Darling Asleep
R: jig
M: 6/8
K: Dmajor
e|:fdd cAA|~B3 A2G|FAA def|gfg eag|
fdd cAA|~B3 A2G|FAA def|1 gec d2e:|2 gec d2A||
|:FAA BAA|FAA Bcd|FAA def|gfg eag|
fdd cAA|~B3 A2G|FAA def|1 gec d2A:|2 gec d2e||

